Sources/FrostedUI/Resources/Icons.xcassets/book16.imageset/book-16.svg

<svg width="16" height="16" viewBox="0 0 16 16" fill="none" xmlns="http://www.w3.org/2000/svg" data-fui-icon="true">
  <path
    fill-rule="evenodd"
    clip-rule="evenodd"
    d="M11.6328 1.0003C12.4898 0.992203 13.3659 1.14888 14.1191 1.49151C14.8717 1.83391 15.5474 2.38561 15.9004 3.18682C15.9735 3.35291 16 3.5211 16 3.67022V13.5784C15.9996 14.0946 15.6202 14.3888 15.3428 14.4905C15.0665 14.5917 14.6469 14.6025 14.3135 14.3108C13.6537 13.7336 12.4347 13.4126 11.1904 13.4896C9.91757 13.5683 8.98063 14.0333 8.6543 14.6165C8.52164 14.8533 8.27142 15.0003 8 15.0003C7.72858 15.0003 7.47836 14.8533 7.3457 14.6165C7.01937 14.0333 6.08243 13.5683 4.80957 13.4896C3.5653 13.4126 2.34635 13.7336 1.68652 14.3108C1.3531 14.6025 0.933541 14.5917 0.657227 14.4905C0.379762 14.3888 0.000387063 14.0946 0 13.5784V3.66631C4.03251e-05 3.51116 0.028753 3.34784 0.0996094 3.18682L0.169922 3.04034C0.5377 2.31806 1.17514 1.81258 1.88086 1.49151C2.63409 1.14888 3.51023 0.992203 4.36719 1.0003C5.63918 1.01233 7.07028 1.40503 8 2.3128C8.92972 1.40503 10.3608 1.01233 11.6328 1.0003ZM4.35352 2.5003C3.67642 2.49389 3.02302 2.61972 2.50195 2.85674C2.00648 3.08217 1.67282 3.38839 1.5 3.7376V12.6419C2.50406 12.1176 3.76271 11.922 4.90234 11.9925C5.69464 12.0415 6.53553 12.2286 7.25 12.595V3.76104C6.81068 3.01895 5.69338 2.51308 4.35352 2.5003ZM11.6465 2.5003C10.3066 2.51308 9.18932 3.01895 8.75 3.76104V12.595C9.46447 12.2286 10.3054 12.0415 11.0977 11.9925C12.2373 11.922 13.4959 12.1176 14.5 12.6419V3.7376C14.3272 3.38839 13.9935 3.08217 13.498 2.85674C12.977 2.61972 12.3236 2.49389 11.6465 2.5003Z"
    fill="currentColor"
  />
</svg>

<svg xmlns="http://www.w3.org/2000/svg" width="16" height="16" fill="none" data-fui-icon="true" viewBox="0 0 16 16"><path fill="currentColor" fill-rule="evenodd" d="M11.633 1c.857-.008 1.733.149 2.486.492s1.428.894 1.781 1.695c.073.166.1.334.1.483v9.908c0 .517-.38.81-.657.913a1.03 1.03 0 0 1-1.03-.18c-.66-.577-1.878-.898-3.123-.821-1.272.078-2.21.543-2.536 1.127a.75.75 0 0 1-1.308 0c-.327-.584-1.264-1.049-2.536-1.127-1.245-.077-2.464.244-3.123.82-.334.292-.753.282-1.03.18S0 14.096 0 13.579V3.666c0-.155.029-.318.1-.48l.07-.146c.368-.722 1.005-1.227 1.71-1.548.754-.343 1.63-.5 2.487-.492C5.64 1.012 7.07 1.405 8 2.313c.93-.908 2.36-1.3 3.633-1.313m-7.28 1.5c-.677-.006-1.33.12-1.851.357-.496.225-.83.531-1.002.88v8.905c1.004-.524 2.263-.72 3.402-.65.793.05 1.634.237 2.348.603V3.761c-.44-.742-1.557-1.248-2.896-1.26m7.294 0c-1.34.013-2.458.519-2.897 1.261v8.834c.714-.366 1.555-.554 2.348-.603 1.14-.07 2.398.126 3.402.65V3.738c-.173-.35-.507-.656-1.002-.881-.521-.237-1.174-.363-1.851-.357" clip-rule="evenodd"/></svg>
